Sources/FrostedUI/Resources/Icons.xcassets/clipboard16.imageset/clipboard-16.svg

<svg width="16" height="16" viewBox="0 0 16 16" fill="none" xmlns="http://www.w3.org/2000/svg" data-fui-icon="true">
  <path
    d="M8.44141 0.25C8.81352 0.250029 9.16371 0.415248 9.39941 0.696289L9.49316 0.824219L9.92773 1.5H10.499C11.103 1.5 11.6085 1.92887 11.7246 2.5H12C13.1046 2.5 14 3.39543 14 4.5V14C14 15.1046 13.1046 16 12 16H4C2.89543 16 2 15.1046 2 14V4.5C2 3.39543 2.89543 2.5 4 2.5H4.27539C4.39149 1.92887 4.89701 1.5 5.50098 1.5H6.07227L6.50684 0.824219C6.73682 0.466468 7.1333 0.250033 7.55859 0.25H8.44141ZM4 4C3.72386 4 3.5 4.22386 3.5 4.5V14C3.5 14.2761 3.72386 14.5 4 14.5H12C12.2761 14.5 12.5 14.2761 12.5 14V4.5C12.5 4.22386 12.2761 4 12 4H11.75V4.25C11.75 4.94036 11.1904 5.5 10.5 5.5H5.5C4.80964 5.5 4.25 4.94036 4.25 4.25V4H4ZM10.25 11C10.6642 11 11 11.3358 11 11.75C11 12.1642 10.6642 12.5 10.25 12.5H5.75C5.33579 12.5 5 12.1642 5 11.75C5 11.3358 5.33579 11 5.75 11H10.25ZM10.25 7.5C10.6642 7.5 11 7.83579 11 8.25C11 8.66421 10.6642 9 10.25 9H5.75C5.33579 9 5 8.66421 5 8.25C5 7.83579 5.33579 7.5 5.75 7.5H10.25ZM7.12598 2.63477C6.99069 2.86095 6.74645 3 6.48242 3H5.75V4H10.25V3H9.51758C9.25355 3 9.00931 2.86095 8.87402 2.63477L8.30566 1.75H7.69434L7.12598 2.63477Z"
    fill="currentColor"
  />
</svg>

<svg xmlns="http://www.w3.org/2000/svg" width="16" height="16" fill="none" data-fui-icon="true" viewBox="0 0 16 16"><path fill="currentColor" d="M8.441.25c.373 0 .723.165.958.446l.094.128.435.676h.571c.604 0 1.11.429 1.226 1H12a2 2 0 0 1 2 2V14a2 2 0 0 1-2 2H4a2 2 0 0 1-2-2V4.5a2 2 0 0 1 2-2h.275c.116-.571.622-1 1.226-1h.571l.435-.676A1.25 1.25 0 0 1 7.559.25zM4 4a.5.5 0 0 0-.5.5V14a.5.5 0 0 0 .5.5h8a.5.5 0 0 0 .5-.5V4.5A.5.5 0 0 0 12 4h-.25v.25c0 .69-.56 1.25-1.25 1.25h-5c-.69 0-1.25-.56-1.25-1.25V4zm6.25 7a.75.75 0 0 1 0 1.5h-4.5a.75.75 0 0 1 0-1.5zm0-3.5a.75.75 0 0 1 0 1.5h-4.5a.75.75 0 0 1 0-1.5zM7.126 2.635A.75.75 0 0 1 6.482 3H5.75v1h4.5V3h-.732a.75.75 0 0 1-.644-.365l-.568-.885h-.612z"/></svg>
